X: 32927
T: Prayer For Tears
R: reel
M: 4/4
K: Aminor
"^A"A2e2 cde(d|d)cde c2Ac|d>c/B// AB2EG(d|d/)c//B// AB2d>c/B// AB|
G>A B A2 Bc(d|d)cB A2 Bcd|e>d c d3e z/ (e/|e/)d/c d> e2 z/e d/c/d|
A2e2 cde(d|d)cde c2Ac|d>c/B// AB2EG(d|d/)c//B// AB2d>c/B// AB|
G>A B A2 Bc(d|d)cB A2 Bcd|e>d c d3e z/ (e/|e/)d/c d>e2 z/A ce||^
"^B"e(fg2)fed(e|e)ede gGAc|(d~d3) dcd(e|e)fec decB|
A>B cB2 cd(c|c)de g2 feB c>A EB2 GE(A|A) d>c/B//A Bcde|
e(fg2)fed(e|e)ede gGAc|(d~d3) dcd(e|e)fec decB|
A>B cB2 cd(c|c)de g2 feB c>A EB2 GE(A|A) d>c/B//A BD E/G/A/B/||

